public/svg/icon/bos.svg

<svg xmlns="http://www.w3.org/2000/svg" xmlns:xlink="http://www.w3.org/1999/xlink" width="32" height="32" viewBox="0 0 32 32"><defs><linearGradient id="bos-c" x1="50%" x2="50%" y1="0%" y2="100%"><stop offset="0%" stop-color="#FFF" stop-opacity=".5"/><stop offset="100%" stop-opacity=".5"/></linearGradient><circle id="bos-b" cx="16" cy="15" r="15"/><filter id="bos-a" width="111.7%" height="111.7%" x="-5.8%" y="-4.2%" filterUnits="objectBoundingBox"><feOffset dy=".5" in="SourceAlpha" result="shadowOffsetOuter1"/><feGaussianBlur in="shadowOffsetOuter1" result="shadowBlurOuter1" stdDeviation=".5"/><feComposite in="shadowBlurOuter1" in2="SourceAlpha" operator="out" result="shadowBlurOuter1"/><feColorMatrix in="shadowBlurOuter1" values="0 0 0 0 0 0 0 0 0 0 0 0 0 0 0 0 0 0 0.199473505 0"/></filter><path id="bos-e" d="M14.4318182,17.9508197 L14.4318182,16.0327869 L17.3863636,16.0327869 C19.3560606,16.0327869 20.3409091,15.5409836 20.3409091,14.557377 L20.3409091,9.39344262 C20.3409091,8.40983607 19.3560606,7.91803279 17.3863636,7.91803279 L12.6590909,7.91803279 L12.6590909,11.0163934 L10,11.0163934 L10,6 L17.0909091,6 C21.030303,6 23,7.08196721 23,9.24590164 L23,14.704918 C23,16.8688525 21.030303,17.9508197 17.0909091,17.9508197 L14.4318182,17.9508197 Z M20.3409091,19.1311475 L23,19.1311475 L23,20.7540984 C23,22.9180328 21.030303,24 17.0909091,24 L10,24 L10,12.4918033 L17.0909091,12.4918033 C17.506802,12.4918033 17.9007414,12.5038625 18.2727273,12.5279809 L18.2727273,14.4491999 C18.0035484,14.4229574 17.7080939,14.4098361 17.3863636,14.4098361 L12.6590909,14.4098361 L12.6590909,22.0819672 L14.4318182,22.0819672 L17.3863636,22.0819672 C19.3560606,22.0819672 20.3409091,21.5901639 20.3409091,20.6065574 L20.3409091,19.1311475 Z"/><filter id="bos-d" width="126.9%" height="119.4%" x="-13.5%" y="-6.9%" filterUnits="objectBoundingBox"><feOffset dy=".5" in="SourceAlpha" result="shadowOffsetOuter1"/><feGaussianBlur in="shadowOffsetOuter1" result="shadowBlurOuter1" stdDeviation=".5"/><feColorMatrix in="shadowBlurOuter1" values="0 0 0 0 0 0 0 0 0 0 0 0 0 0 0 0 0 0 0.204257246 0"/></filter></defs><g fill="none" fill-rule="evenodd"><use fill="#000" filter="url(#bos-a)" xlink:href="#bos-b"/><use fill="#00A8D6" xlink:href="#bos-b"/><use fill="url(#bos-c)" style="mix-blend-mode:soft-light" xlink:href="#bos-b"/><circle cx="16" cy="15" r="14.5" stroke="#000" stroke-opacity=".097"/><g><use fill="#000" filter="url(#bos-d)" xlink:href="#bos-e"/><use fill="#FFF" xlink:href="#bos-e"/></g></g></svg>

<svg xmlns="http://www.w3.org/2000/svg" xmlns:xlink="http://www.w3.org/1999/xlink" width="32" height="32" viewBox="0 0 32 32"><defs><filter id="a" width="111.7%" height="111.7%" x="-5.8%" y="-4.2%" filterUnits="objectBoundingBox"><feOffset dy=".5" in="SourceAlpha" result="shadowOffsetOuter1"/><feGaussianBlur in="shadowOffsetOuter1" result="shadowBlurOuter1" stdDeviation=".5"/><feComposite in="shadowBlurOuter1" in2="SourceAlpha" operator="out" result="shadowBlurOuter1"/><feColorMatrix in="shadowBlurOuter1" values="0 0 0 0 0 0 0 0 0 0 0 0 0 0 0 0 0 0 0.199473505 0"/></filter><filter id="d" width="126.9%" height="119.4%" x="-13.5%" y="-6.9%" filterUnits="objectBoundingBox"><feOffset dy=".5" in="SourceAlpha" result="shadowOffsetOuter1"/><feGaussianBlur in="shadowOffsetOuter1" result="shadowBlurOuter1" stdDeviation=".5"/><feColorMatrix in="shadowBlurOuter1" values="0 0 0 0 0 0 0 0 0 0 0 0 0 0 0 0 0 0 0.204257246 0"/></filter><linearGradient id="c" x1="50%" x2="50%" y1="0%" y2="100%"><stop offset="0%" stop-color="#FFF" stop-opacity=".5"/><stop offset="100%" stop-opacity=".5"/></linearGradient><circle id="b" cx="16" cy="15" r="15"/><path id="e" d="M14.432 17.95v-1.917h2.954c1.97 0 2.955-.492 2.955-1.476V9.393c0-.983-.985-1.475-2.955-1.475H12.66v3.098H10V6h7.09C21.03 6 23 7.082 23 9.246v5.459c0 2.164-1.97 3.246-5.91 3.246h-2.658zm5.909 1.181H23v1.623C23 22.918 21.03 24 17.09 24H10V12.492h7.09c.417 0 .81.012 1.183.036v1.921a9.18 9.18 0 00-.887-.04H12.66v7.673h4.727c1.97 0 2.955-.492 2.955-1.475V19.13z"/></defs><g fill="none" fill-rule="evenodd"><use fill="#000" filter="url(#a)" xlink:href="#b"/><use fill="#00A8D6" xlink:href="#b"/><use fill="url(#c)" style="mix-blend-mode:soft-light" xlink:href="#b"/><circle cx="16" cy="15" r="14.5" stroke="#000" stroke-opacity=".097"/><use fill="#000" filter="url(#d)" xlink:href="#e"/><use fill="#FFF" xlink:href="#e"/></g></svg>
